Papirus/48x48/devices/input-dialpad.svg

<svg xmlns="http://www.w3.org/2000/svg" width="48" height="48" version="1">
 <rect style="opacity:0.2" width="30" height="40" x="9" y="-45" rx="2.143" ry="2" transform="scale(1,-1)"/>
 <rect width="30" height="40" x="9" y="-44" rx="2.143" ry="2" transform="scale(1,-1)" style="fill:#4f4f4f"/>
 <path style="fill:#ffffff;opacity:0.1" d="M 11.142578 4 C 9.9554353 4 9 4.892 9 6 L 9 7 C 9 5.892 9.9554353 5 11.142578 5 L 36.857422 5 C 38.044565 5 39 5.892 39 7 L 39 6 C 39 4.892 38.044565 4 36.857422 4 L 11.142578 4 z"/>
 <path style="opacity:0.2" d="m 14,10 c -0.554,0 -1,0.446 -1,1 v 4 c 0,0.554 0.446,1 1,1 h 4 c 0.554,0 1,-0.446 1,-1 v -4 c 0,-0.554 -0.446,-1 -1,-1 z m 8,0 c -0.554,0 -1,0.446 -1,1 v 4 c 0,0.554 0.446,1 1,1 h 4 c 0.554,0 1,-0.446 1,-1 v -4 c 0,-0.554 -0.446,-1 -1,-1 z m 8,0 c -0.554,0 -1,0.446 -1,1 v 4 c 0,0.554 0.446,1 1,1 h 4 c 0.554,0 1,-0.446 1,-1 v -4 c 0,-0.554 -0.446,-1 -1,-1 z m -16,8 c -0.554,0 -1,0.446 -1,1 v 4 c 0,0.554 0.446,1 1,1 h 4 c 0.554,0 1,-0.446 1,-1 v -4 c 0,-0.554 -0.446,-1 -1,-1 z m 8,0 c -0.554,0 -1,0.446 -1,1 v 4 c 0,0.554 0.446,1 1,1 h 4 c 0.554,0 1,-0.446 1,-1 v -4 c 0,-0.554 -0.446,-1 -1,-1 z m 8,0 c -0.554,0 -1,0.446 -1,1 v 4 c 0,0.554 0.446,1 1,1 h 4 c 0.554,0 1,-0.446 1,-1 v -4 c 0,-0.554 -0.446,-1 -1,-1 z m -16,8 c -0.554,0 -1,0.446 -1,1 v 4 c 0,0.554 0.446,1 1,1 h 4 c 0.554,0 1,-0.446 1,-1 v -4 c 0,-0.554 -0.446,-1 -1,-1 z m 8,0 c -0.554,0 -1,0.446 -1,1 v 4 c 0,0.554 0.446,1 1,1 h 4 c 0.554,0 1,-0.446 1,-1 v -4 c 0,-0.554 -0.446,-1 -1,-1 z m 8,0 c -0.554,0 -1,0.446 -1,1 v 4 c 0,0.554 0.446,1 1,1 h 4 c 0.554,0 1,-0.446 1,-1 v -4 c 0,-0.554 -0.446,-1 -1,-1 z m -16,8 c -0.554,0 -1,0.446 -1,1 v 4 c 0,0.554 0.446,1 1,1 h 4 c 0.554,0 1,-0.446 1,-1 v -4 c 0,-0.554 -0.446,-1 -1,-1 z m 8,0 c -0.554,0 -1,0.446 -1,1 v 4 c 0,0.554 0.446,1 1,1 h 4 c 0.554,0 1,-0.446 1,-1 v -4 c 0,-0.554 -0.446,-1 -1,-1 z m 8,0 c -0.554,0 -1,0.446 -1,1 v 4 c 0,0.554 0.446,1 1,1 h 4 c 0.554,0 1,-0.446 1,-1 v -4 c 0,-0.554 -0.446,-1 -1,-1 z"/>
 <rect style="fill:#e4e4e4" width="6" height="6" x="21" y="17" rx="1" ry="1"/>
 <rect width="6" height="6" x="29" y="17" rx="1" ry="1" style="fill:#e4e4e4"/>
 <rect width="6" height="6" x="13" y="17" rx="1" ry="1" style="fill:#e4e4e4"/>
 <rect width="6" height="6" x="21" y="9" rx="1" ry="1" style="fill:#e4e4e4"/>
 <rect style="fill:#e4e4e4" width="6" height="6" x="29" y="9" rx="1" ry="1"/>
 <rect style="fill:#e4e4e4" width="6" height="6" x="13" y="9" rx="1" ry="1"/>
 <rect width="6" height="6" x="21" y="25" rx="1" ry="1" style="fill:#e4e4e4"/>
 <rect style="fill:#e4e4e4" width="6" height="6" x="29" y="25" rx="1" ry="1"/>
 <rect style="fill:#e4e4e4" width="6" height="6" x="13" y="25" rx="1" ry="1"/>
 <rect style="fill:#e4e4e4" width="6" height="6" x="21" y="33" rx="1" ry="1"/>
 <rect width="6" height="6" x="29" y="33" rx="1" ry="1" style="fill:#ff5a5a"/>
 <rect width="6" height="6" x="13" y="33" rx="1" ry="1" style="fill:#64c90e"/>
 <path style="opacity:0.2;fill:#ffffff" d="m 14,9 c -0.554,0 -1,0.446 -1,1 v 1 c 0,-0.554 0.446,-1 1,-1 h 4 c 0.554,0 1,0.446 1,1 V 10 C 19,9.446 18.554,9 18,9 Z m 8,0 c -0.554,0 -1,0.446 -1,1 v 1 c 0,-0.554 0.446,-1 1,-1 h 4 c 0.554,0 1,0.446 1,1 V 10 C 27,9.446 26.554,9 26,9 Z m 8,0 c -0.554,0 -1,0.446 -1,1 v 1 c 0,-0.554 0.446,-1 1,-1 h 4 c 0.554,0 1,0.446 1,1 V 10 C 35,9.446 34.554,9 34,9 Z m -16,8 c -0.554,0 -1,0.446 -1,1 v 1 c 0,-0.554 0.446,-1 1,-1 h 4 c 0.554,0 1,0.446 1,1 v -1 c 0,-0.554 -0.446,-1 -1,-1 z m 8,0 c -0.554,0 -1,0.446 -1,1 v 1 c 0,-0.554 0.446,-1 1,-1 h 4 c 0.554,0 1,0.446 1,1 v -1 c 0,-0.554 -0.446,-1 -1,-1 z m 8,0 c -0.554,0 -1,0.446 -1,1 v 1 c 0,-0.554 0.446,-1 1,-1 h 4 c 0.554,0 1,0.446 1,1 v -1 c 0,-0.554 -0.446,-1 -1,-1 z m -16,8 c -0.554,0 -1,0.446 -1,1 v 1 c 0,-0.554 0.446,-1 1,-1 h 4 c 0.554,0 1,0.446 1,1 v -1 c 0,-0.554 -0.446,-1 -1,-1 z m 8,0 c -0.554,0 -1,0.446 -1,1 v 1 c 0,-0.554 0.446,-1 1,-1 h 4 c 0.554,0 1,0.446 1,1 v -1 c 0,-0.554 -0.446,-1 -1,-1 z m 8,0 c -0.554,0 -1,0.446 -1,1 v 1 c 0,-0.554 0.446,-1 1,-1 h 4 c 0.554,0 1,0.446 1,1 v -1 c 0,-0.554 -0.446,-1 -1,-1 z m -16,8 c -0.554,0 -1,0.446 -1,1 v 1 c 0,-0.554 0.446,-1 1,-1 h 4 c 0.554,0 1,0.446 1,1 v -1 c 0,-0.554 -0.446,-1 -1,-1 z m 8,0 c -0.554,0 -1,0.446 -1,1 v 1 c 0,-0.554 0.446,-1 1,-1 h 4 c 0.554,0 1,0.446 1,1 v -1 c 0,-0.554 -0.446,-1 -1,-1 z m 8,0 c -0.554,0 -1,0.446 -1,1 v 1 c 0,-0.554 0.446,-1 1,-1 h 4 c 0.554,0 1,0.446 1,1 v -1 c 0,-0.554 -0.446,-1 -1,-1 z"/>
</svg>

<svg xmlns="http://www.w3.org/2000/svg" width="48" height="48" version="1">
 <rect style="opacity:0.2" width="30" height="40" x="9" y="5" rx="2" ry="2"/>
 <rect width="30" height="40" x="9" y="4" rx="2" ry="2" style="fill:#4f4f4f"/>
 <g transform="translate(0,1)" style="opacity:0.2">
  <rect width="6" height="6" x="21" y="17" rx="1" ry="1"/>
  <rect width="6" height="6" x="29" y="17" rx="1" ry="1"/>
  <rect width="6" height="6" x="13" y="17" rx="1" ry="1"/>
  <rect width="6" height="6" x="21" y="9" rx="1" ry="1"/>
  <rect width="6" height="6" x="29" y="9" rx="1" ry="1"/>
  <rect width="6" height="6" x="13" y="9" rx="1" ry="1"/>
  <rect width="6" height="6" x="21" y="25" rx="1" ry="1"/>
  <rect width="6" height="6" x="29" y="25" rx="1" ry="1"/>
  <rect width="6" height="6" x="13" y="25" rx="1" ry="1"/>
  <rect width="6" height="6" x="21" y="33" rx="1" ry="1"/>
  <rect width="6" height="6" x="29" y="33" rx="1" ry="1"/>
  <rect width="6" height="6" x="13" y="33" rx="1" ry="1"/>
 </g>
 <g style="fill:#e4e4e4">
  <rect width="6" height="6" x="21" y="17" rx="1" ry="1"/>
  <rect width="6" height="6" x="29" y="17" rx="1" ry="1"/>
  <rect width="6" height="6" x="13" y="17" rx="1" ry="1"/>
  <rect width="6" height="6" x="21" y="9" rx="1" ry="1"/>
  <rect width="6" height="6" x="29" y="9" rx="1" ry="1"/>
  <rect width="6" height="6" x="13" y="9" rx="1" ry="1"/>
  <rect width="6" height="6" x="21" y="25" rx="1" ry="1"/>
  <rect width="6" height="6" x="29" y="25" rx="1" ry="1"/>
  <rect width="6" height="6" x="13" y="25" rx="1" ry="1"/>
  <rect width="6" height="6" x="21" y="33" rx="1" ry="1"/>
 </g>
 <rect width="6" height="6" x="29" y="33" rx="1" ry="1" style="fill:#ff5a5a"/>
 <rect width="6" height="6" x="13" y="33" rx="1" ry="1" style="fill:#64c90e"/>
 <path style="fill:#ffffff;opacity:0.2" d="M 14 9 C 13.446 9 13 9.446 13 10 L 13 11 C 13 10.446 13.446 10 14 10 L 18 10 C 18.554 10 19 10.446 19 11 L 19 10 C 19 9.446 18.554 9 18 9 L 14 9 z M 22 9 C 21.446 9 21 9.446 21 10 L 21 11 C 21 10.446 21.446 10 22 10 L 26 10 C 26.554 10 27 10.446 27 11 L 27 10 C 27 9.446 26.554 9 26 9 L 22 9 z M 30 9 C 29.446 9 29 9.446 29 10 L 29 11 C 29 10.446 29.446 10 30 10 L 34 10 C 34.554 10 35 10.446 35 11 L 35 10 C 35 9.446 34.554 9 34 9 L 30 9 z M 14 17 C 13.446 17 13 17.446 13 18 L 13 19 C 13 18.446 13.446 18 14 18 L 18 18 C 18.554 18 19 18.446 19 19 L 19 18 C 19 17.446 18.554 17 18 17 L 14 17 z M 22 17 C 21.446 17 21 17.446 21 18 L 21 19 C 21 18.446 21.446 18 22 18 L 26 18 C 26.554 18 27 18.446 27 19 L 27 18 C 27 17.446 26.554 17 26 17 L 22 17 z M 30 17 C 29.446 17 29 17.446 29 18 L 29 19 C 29 18.446 29.446 18 30 18 L 34 18 C 34.554 18 35 18.446 35 19 L 35 18 C 35 17.446 34.554 17 34 17 L 30 17 z M 14 25 C 13.446 25 13 25.446 13 26 L 13 27 C 13 26.446 13.446 26 14 26 L 18 26 C 18.554 26 19 26.446 19 27 L 19 26 C 19 25.446 18.554 25 18 25 L 14 25 z M 22 25 C 21.446 25 21 25.446 21 26 L 21 27 C 21 26.446 21.446 26 22 26 L 26 26 C 26.554 26 27 26.446 27 27 L 27 26 C 27 25.446 26.554 25 26 25 L 22 25 z M 30 25 C 29.446 25 29 25.446 29 26 L 29 27 C 29 26.446 29.446 26 30 26 L 34 26 C 34.554 26 35 26.446 35 27 L 35 26 C 35 25.446 34.554 25 34 25 L 30 25 z M 14 33 C 13.446 33 13 33.446 13 34 L 13 35 C 13 34.446 13.446 34 14 34 L 18 34 C 18.554 34 19 34.446 19 35 L 19 34 C 19 33.446 18.554 33 18 33 L 14 33 z M 22 33 C 21.446 33 21 33.446 21 34 L 21 35 C 21 34.446 21.446 34 22 34 L 26 34 C 26.554 34 27 34.446 27 35 L 27 34 C 27 33.446 26.554 33 26 33 L 22 33 z M 30 33 C 29.446 33 29 33.446 29 34 L 29 35 C 29 34.446 29.446 34 30 34 L 34 34 C 34.554 34 35 34.446 35 35 L 35 34 C 35 33.446 34.554 33 34 33 L 30 33 z"/>
 <path style="fill:#ffffff;opacity:0.1" d="M 11 4 C 9.892 4 9 4.892 9 6 L 9 7 C 9 5.892 9.892 5 11 5 L 37 5 C 38.108 5 39 5.892 39 7 L 39 6 C 39 4.892 38.108 4 37 4 L 11 4 z"/>
</svg>
